X:1     %Music
T:The Wild White Rose
B:Singing Together, Summer 1976, BBC Publications
F:http://www.folkinfo.org/songs
M:3/8     %Meter
L:1/16     %
K:G
B,2 |E4 F2 |G4 B2 |A4 G2 | (F2E2)D2 |E6 |G6 |F2A2F2 | E4
w:"To-day I left the town be-hind_ To wan-der green coun-try lane, 
 B,2 |E4 F2 |G4 B2 |A4 G2 | (F2E2)D2 |E6 |G6 |F2A2G2 | E4 
w:And now I'll take this wild white rose,_ Of sum-mer back on the train." 
B2 |B4 ^c2 |(d2^c2)d2 |B4 ^c2 | d2^c2 d2 |d2^c2d2 |e4 e2 |d2^c2d2 | B4
w:"Now stay your hand_ you gip-sy towns-man,  Who wan-ders the lane for all of a day, 
 B2 |e4 B2 |(B2A2)G2 |A4 G2 | F2E2D2 |E6 |B6 |F2A2G2 | E4 |]
w:The wild white rose_ is the sum-mer's glor-y, Why pray, take me a-way?" 